X: 23995
T: Loftus Jones
R: reel
M: 4/4
K: Gmajor
|:"G" g4 "D/F#" f3 e|"G" d3 c BcdB|"C" cBAF "G/B" G3 A|"G/B" BcBA G2 "C" A2|
"G/B" BcdB "C" cdec|"G/B" d2 cB "Am" cBAG|"D" FGFE "D/F#" D2 DF|"G" GAGF "C" Eccc|
"G/B" d^cdB "Am" =cBcA|"G" G2 D2 E2 F2|"Em" G2 E2 F2 G2|"D/F#" A2 F2 G2 A2|
"G" B3 G A2 B2|"Am" c3 A "G/B" dBBB|"C" cBAG "D" FGAF|"G" G2 DC B,2 D2|1 G,4- G,4:|2 G,4- G,3||
|:B|"D/F#" A3 F G2 E2|F2 D2 "Em" E3 F|G2 A2 "D/F#" F2 B2|"Em" E4 "D/F#" F4|
"G" B3 c "D/F#" A3 B|"G" GABc B2 "D/F#" A2|"G" GABc dcBA|G2 "F/F#" F2 "Em" E4|
"Em" B,EGE B,EGE|"D" DFFF DFAF|"Em" EGEG EGEG|"D/F#" FAFA FAFA|
"Em" GBBB "Em/D#" GBGB|"Em/D" GBGB "Em/C#" GBGB|"Em" ef g2 "D" f4|"C" e4 e3 f|
"G" gbgb fafa|eccc dBdB|"C" cAcA "G/B" BGBG|"Am" AGFE "D" DEFD|
"G" G2 DC B,DGB|"Am" AGFE "G/B" D2 d2|"C" cBAG "D" FGAF|"G" G2 DC B,2 D2|1 G,4- G,3:|2 G,4- G,4||

